X:1
T: Ball na Grandach
T: Miss Lucia Campbell
R:Strathspey
Q:128
K:G
M:4/4
L:1/16
|:B2|AD3 A3F AD3 A3F|AD3 A3F BE3 E3F|AD3 A3F d3e f3e|d3B ABdF A2D2 D2f2|
d3B AF3 d3e f3e|d3B AF3 eE3 E3e|d3B AF3 d3e f3d|d3B ABdF A2D2 D2B2|
A2D2 AGF2 A2D2 AGF2|A2D2 AGF2 BE3 E3F|A2D2 AGF2 d3e f3d|d3B ABdF A2D2 D2f2|
d3f A3f d3f A3f|d3f A3f eE3 E3e|d3f A3f d3e f3e|d3B ABdF A2D2 D2F2|
A,3D FED2 A3D FED2|A,3D FED2 BE3 E3F|A,3D FED2 A3D FED2|d3B ABdF A2D2 D2fg|
a3b a3f d3e f3d|ef3 d3f eE3 E3f|a3b abaf d3e f3e|d3B ABdF A2D2 D2:|
